X: 1
T:Kas ha barh
C:Carr Manchot "Noz!"
M:4/4
L:1/8
K:A
e2ef d2e2|c3d eaa2|e2ef d2e2|1 c3d eAA2:|c2d2 e4\
|:A2AB cdcB|A2f2e4|
de (3dcB c2AB|(3cBA Bc B2ec|\
A2AB cdcB|A2f2e4|de (3dcB c2AB|(3cBA BG A4:|
